!!!COM: Haydn, Franz Joseph
!!!ONM: Opus 09, No. 2
!!!OTL: Maestoso 
!!!OMV: 3a
!!!SCT: H /disk/dos2/musedata_2000/haydn/traut/quart/op09n2/stage1/03a
!!!SCA: Thematisch-bibliographisches Werkevererzeichnis (A. van Hoboken)
!!!YOR: Trautwein Edition
!!!EED: Frances Bennion
!!!ENC: Frances Bennion
!!!CDT: 1732/3/31/-1809/5/31/
!!!OCY: Österreich
!!!YEC: Copyright (c) 1994, 2000 Center for Computer Assisted Research in the Humanities
!!!YEM: Rights to all derivative editions reserved.
!!!YEM: Refer to licensing agreement for further details.
!!!YEN: United States of America
**kern	**kern	**kern	**kern
*k[b-e-a-]	*k[b-e-a-]	*k[b-e-a-]	*k[b-e-a-]
*c:	*c:	*c:	*c:
*clefG	*clefG	*clefC3	*clefF4
*M4/4	*M4/4	*M4/4	*M4/4
*tb48	*tb48	*tb48	*tb48
=1	=1	=1	=1
4.r	4r	8r	[1C
.	.	[8E-	.
.	[2.G	2.E-_	.
8B	.	.	.
8c	.	.	.
8e-	.	.	.
8g	.	.	.
8b	.	.	.
=2	=2	=2	=2
8cc	2G]	2E-]	2C]
8ee-	.	.	.
8dd	.	.	.
8cc	.	.	.
2cc	4.r	4r	8r
.	.	.	[4.D
.	.	[4F	.
.	[8A-	.	.
=3	=3	=3	=3
8b	2A-_	2F_	1D_
8B	.	.	.
8d	.	.	.
8f	.	.	.
8a-	2A-_	2F_	.
8b	.	.	.
8dd	.	.	.
8ff	.	.	.
=4	=4	=4	=4
8.aa-	2A-]	2F]	2D]
48gg	.	.	.
48aa-	.	.	.
48bb-	.	.	.
8.aa-	.	.	.
48gg	.	.	.
48aa-	.	.	.
48bb-	.	.	.
4aa-	2r	2r	2r
8gg	.	.	.
8b	.	.	.
=5	=5	=5	=5
2dd	4.r	4r	4r
.	.	4.G	4.E-
.	8B	.	.
8cc	8c	.	.
16r	4.r	4.r	4.r
16G	.	.	.
16c	.	.	.
16e-	.	.	.
16g	.	.	.
16b	.	.	.
=6	=6	=6	=6
16cc	2..r	2.r	2r
16dd	.	.	.
16ee-	.	.	.
16ff#	.	.	.
16gg	.	.	.
16bb	.	.	.
16ccc	.	.	.
16bb	.	.	.
[2ccc	.	.	8r
.	.	.	[4AA-
.	.	4c	.
.	8e-	.	8AA-_
=7	=7	=7	=7
8ccc]	[2f#	2e-	2AA-_
8cc	.	.	.
8cc	.	.	.
8cc	.	.	.
4ee-	8f#]	8c	8AA-]
.	4.r	4.r	4.r
8dd	.	.	.
8cc	.	.	.
=8	=8	=8	=8
2cc	4.r	4r	4r
.	.	4.d	4.GG
.	8f#	.	.
4b	8g	.	.
.	4.r	4.r	4.r
4r	.	.	.
==	==	==	==
*-	*-	*-	*-
!!!RWG1: This file contains only pitch and duration data.
!!!RWG2: Transposing instruments are not transposed.
!!!RWG3: Spines may have incompatible meters.
!!!RWG4: Durations of rests and tied notes may be interpreted.
!!!RWG: Key is interpreted using the Humdrum key tool.
!!!AFT: stage1
!!!END: 1997/04/15
!!format changes:
!!content changes:
!!public access: complete
!!!KEY: 2572776765
!!!EMD: Converted from MuseData to Humdrum Dec 16, 2000, by Andreas Kornstaedt using muse2kern.
